X: 19106
T: Irish Lass, The
R: jig
M: 6/8
K: Gmajor
G2 E|:[1 DED DB,D|2 D3 DB,D||DB,D FGF|EGE EDB,|EGA B2 B|
ABd ege|dBA G2A|Bee dBA|1 GED EGE:|2 GED E2d||
|:ded dBd|ded d2g|ege edB|BAB G3|GBg edB|
cdc B2B|ABd BAB|1 GED E2d:|2 GED E3||

